Sources/FrostedUI/Resources/Icons.xcassets/documentLines32.imageset/document-lines-32.svg

<svg width="32" height="32" viewBox="0 0 32 32" fill="none" xmlns="http://www.w3.org/2000/svg" data-fui-icon="true">
  <path
    d="M15.8955 2.91699C16.8015 2.91709 17.6708 3.27732 18.3115 3.91797L25.416 11.0225C26.0566 11.6632 26.416 12.5325 26.416 13.4385V25.667C26.4158 27.5537 24.8867 29.0838 23 29.084H9C7.11332 29.0838 5.58321 27.5537 5.58301 25.667V6.33398C5.58301 4.44713 7.11319 2.91719 9 2.91699H15.8955ZM9 4.41699C7.94162 4.41719 7.08301 5.27556 7.08301 6.33398V25.667C7.08321 26.7253 7.94174 27.5838 9 27.584H23C24.0583 27.5838 24.9158 26.7253 24.916 25.667V13.4385C24.916 13.3188 24.9036 13.2 24.8818 13.084H19.666C17.7794 13.0836 16.2502 11.5536 16.25 9.66699V4.4502C16.134 4.42836 16.0152 4.41702 15.8955 4.41699H9ZM21.625 21.75C22.039 21.7502 22.3748 22.086 22.375 22.5C22.3748 22.9139 22.0389 23.2498 21.625 23.25H10.375C9.96108 23.2498 9.6252 22.9139 9.625 22.5C9.62518 22.0861 9.96106 21.7502 10.375 21.75H21.625ZM16.3125 16.2715C16.7266 16.2717 17.0625 16.6074 17.0625 17.0215C17.0621 17.4353 16.7263 17.7713 16.3125 17.7715H10.375C9.96118 17.7713 9.62537 17.4353 9.625 17.0215C9.625 16.6074 9.96095 16.2717 10.375 16.2715H16.3125ZM17.75 9.66699C17.7502 10.7251 18.6079 11.5836 19.666 11.584H23.8555L17.75 5.47852V9.66699Z"
    fill="currentColor"
  />
</svg>

<svg xmlns="http://www.w3.org/2000/svg" width="32" height="32" fill="none" data-fui-icon="true" viewBox="0 0 32 32"><path fill="currentColor" d="M15.896 2.917c.906 0 1.775.36 2.415 1.001l7.105 7.105c.64.64 1 1.51 1 2.415v12.229A3.417 3.417 0 0 1 23 29.084H9a3.42 3.42 0 0 1-3.417-3.417V6.334A3.42 3.42 0 0 1 9 2.917zM9 4.417a1.92 1.92 0 0 0-1.917 1.917v19.333c0 1.058.859 1.917 1.917 1.917h14a1.917 1.917 0 0 0 1.916-1.917V13.438q0-.18-.034-.354h-5.216a3.417 3.417 0 0 1-3.416-3.417V4.45a2 2 0 0 0-.354-.033zM21.625 21.75a.75.75 0 0 1 0 1.5h-11.25a.75.75 0 0 1 0-1.5zm-5.312-5.478a.75.75 0 0 1 0 1.5h-5.938a.75.75 0 0 1 0-1.5zm1.437-6.605c0 1.058.858 1.917 1.916 1.917h4.19L17.75 5.479z"/></svg>
